src/bright/hiso font bright_r.svg

<svg xmlns="http://www.w3.org/2000/svg" width="90" height="126" viewBox="0 0 90 126"><path fill="#000101" d="M36 9l-36 18v72l36 18v-36l36 18-18-27 18-9v-36l-36-18zm27.24 82.26l-23.881-11.94 11.94-5.97 11.941 17.91zm-27.24-13.61v-30.97l30.98 15.48-30.98 15.49zm1.68-33.49l30.97-15.48.35.17v30.98l-31.32-15.67z"/></svg>

<svg xmlns="http://www.w3.org/2000/svg" width="90" height="126"><path fill="#000101" d="M36 9L0 27v72l36 18V81l36 18-18-27 18-9V27L36 9zm27.24 82.26L39.359 79.32l11.94-5.97L63.24 91.26zM36 77.65V46.68l30.98 15.48L36 77.65zm1.68-33.49l30.97-15.48.35.17v30.98L37.68 44.16z"/></svg>
